resources/svg/billiards-fill.svg

<svg fill="currentColor" viewBox="0 0 24 24" xmlns="http://www.w3.org/2000/svg"><path d="M12 2C17.5228 2 22 6.47715 22 12C22 17.5228 17.5228 22 12 22C6.47715 22 2 17.5228 2 12C2 6.47715 6.47715 2 12 2ZM12 6C8.68629 6 6 8.68629 6 12C6 15.3137 8.68629 18 12 18C15.3137 18 18 15.3137 18 12C18 8.68629 15.3137 6 12 6ZM12 7.75C13.3807 7.75 14.5 8.86929 14.5 10.25C14.5 10.8815 14.2658 11.4584 13.8796 11.8984C14.4447 12.354 14.8 13.0149 14.8 13.75C14.8 15.1307 13.5464 16.25 12 16.25C10.4536 16.25 9.2 15.1307 9.2 13.75C9.2 13.0149 9.5553 12.354 10.1209 11.8966C9.73416 11.4584 9.5 10.8815 9.5 10.25C9.5 8.86929 10.6193 7.75 12 7.75ZM12 12.75C11.2465 12.75 10.7 13.238 10.7 13.75C10.7 14.262 11.2465 14.75 12 14.75C12.7535 14.75 13.3 14.262 13.3 13.75C13.3 13.238 12.7535 12.75 12 12.75ZM12 9.25C11.4477 9.25 11 9.69772 11 10.25C11 10.8023 11.4477 11.25 12 11.25C12.5523 11.25 13 10.8023 13 10.25C13 9.69772 12.5523 9.25 12 9.25Z"/></svg>

<svg xmlns="http://www.w3.org/2000/svg" viewBox="0 0 24 24" fill="currentColor">
    <g>
        <path fill="none" d="M0 0h24v24H0z"/>
        <path d="M12 2c5.523 0 10 4.477 10 10s-4.477 10-10 10S2 17.523 2 12 6.477 2 12 2zm0 4a6 6 0 1 0 0 12 6 6 0 0 0 0-12zm0 1.75a2.5 2.5 0 0 1 1.88 4.148c.565.456.92 1.117.92 1.852 0 1.38-1.254 2.5-2.8 2.5-1.546 0-2.8-1.12-2.8-2.5 0-.735.355-1.396.92-1.853A2.5 2.5 0 0 1 12 7.75zm0 5c-.753 0-1.3.488-1.3 1s.547 1 1.3 1 1.3-.488 1.3-1-.547-1-1.3-1zm0-3.5a1 1 0 1 0 0 2 1 1 0 0 0 0-2z"/>
    </g>
</svg>
